icon/ir/cloud-sync.svg

<svg stroke-width="1.5" viewBox="0 0 24 24" fill="none" xmlns="http://www.w3.org/2000/svg" height="1em" width="1em">
  <path d="M20 17.6073C21.4937 17.0221 23 15.6889 23 13C23 9 19.6667 8 18 8C18 6 18 2 12 2C6 2 6 6 6 8C4.33333 8 1 9 1 13C1 15.6889 2.50628 17.0221 4 17.6073" stroke="currentColor" stroke-linecap="round" stroke-linejoin="round"/>
  <path d="M7.58059 19.4874L9.34836 21.2552C10.9105 22.8173 13.4431 22.8173 15.0052 21.2552L15.3588 20.9016" stroke="currentColor" stroke-linecap="round" stroke-linejoin="round"/>
  <path d="M7.93413 21.9623L7.58058 19.4874L10.0554 19.841L7.93413 21.9623Z" stroke="currentColor" stroke-linecap="round" stroke-linejoin="round"/>
  <path d="M16.2981 16.9016L14.5303 15.1339C12.9682 13.5718 10.4355 13.5718 8.87345 15.1339L8.51989 15.4874" stroke="currentColor" stroke-linecap="round" stroke-linejoin="round"/>
  <path d="M15.9445 14.4268L16.2981 16.9017L13.8232 16.5481L15.9445 14.4268Z" stroke="currentColor" stroke-linecap="round" stroke-linejoin="round"/>
</svg>

<svg width="24" height="24" stroke-width="1.5" fill="none" xmlns="http://www.w3.org/2000/svg"><path d="M20 17.607c1.494-.585 3-1.918 3-4.607 0-4-3.333-5-5-5 0-2 0-6-6-6S6 6 6 8c-1.667 0-5 1-5 5 0 2.689 1.506 4.022 3 4.607M7.58 19.487l1.768 1.768a4 4 0 0 0 5.657 0l.354-.353" stroke="currentColor" stroke-linecap="round" stroke-linejoin="round"/><path d="m7.934 21.962-.353-2.475 2.474.354-2.12 2.121ZM16.298 16.902l-1.768-1.768a4 4 0 0 0-5.657 0l-.353.353" stroke="currentColor" stroke-linecap="round" stroke-linejoin="round"/><path d="m15.944 14.427.354 2.475-2.475-.354 2.121-2.121Z" stroke="currentColor" stroke-linecap="round" stroke-linejoin="round"/></svg>
